X:12
T:Le Seigneur est ressuscit - I13
C:R. Jef
M:2/4
L:1/8
K:D
DF|"Re"A2FA|"Sol"B2B2|"Re"A4|"Sol"BB "La"G2|"Re"A4||
[M:3/4]"Re"D/D/D/D/ "Sim"F/F/F/F/ "Fa#m"A/A/A/A/|[M:2/4]"Sol"B4|[M:3/4]"Mim"B/B/B/B/ "Fa#m"AA "Sim"F/F/F/F/|\
"La"A4||
